X: 547
M: 6/4
L: 1/4
K: G
|: (d/e//f//) |\
g>fg e2f | g3 B>AB | c>Bc B>cd | e3 d2e/f/ |\
g>fg B>cd | G2G A2B | c>dB A>GF | G3- G2 :|

